X:731
T:Reel 731
M:4/4
K:Dmaj
L:1/8
AG|F>D (3DCD A>D (3DCD |G>D (3DDD A2GE|F>D (3DCD A>D (3DCD |ECCE =cAGE|F>D (3DDD A,DDG|F>D (3DDD ABAG|FEDC DEFG|AB=cA G2|AG|FEFG ABAG|FEFG A2AG|FEFG AB=cA|GECE G2FG|FEFG A2AB|=cBcF G2FG|DEGE FDFA|Dddc d2|
